monitor-arrow-down-variant.svg

<svg fill="currentColor" viewBox="0 0 24 24"><path d="m17 14 5-5-1.4-1.4-2.6 2.6V3h-2v7.2l-2.6-2.6L12 9zm6 0v2c0 1.1-.9 2-2 2h-7v2h2v2H8v-2h2v-2H3c-1.1 0-2-.9-2-2V4c0-1.1.9-2 2-2h9v2H3v12h18v-2z"/></svg>

<svg  viewBox="0 0 24 24" fill="currentColor"><path  d="M17 14L22 9L20.6 7.6L18 10.2V3H16V10.2L13.4 7.6L12 9L17 14M23 14V16C23 17.1 22.1 18 21 18H14V20H16V22H8V20H10V18H3C1.9 18 1 17.1 1 16V4C1 2.9 1.9 2 3 2H12V4H3V16H21V14H23Z"/></svg>
